build/Karasa-Jaga/scalable/categories/preferences-other-symbolic.svg

<svg height="16" width="16" xmlns="http://www.w3.org/2000/svg"><g fill="#bebebe"><path d="m12.5625.28125c-1.9114 0-2.9375.46889993-2.9375 2.375 0 .39829-.43694 1.86283-.3125 2.21875-2.0603777 2.8435701-5.4971563 4.9306346-7.6875 6.9375-.016438.0152-.045979.01589-.0625.03125-.60289247.283291-1.03125.914775-1.03125 1.625 0 .97962.8016298 1.75 1.78125 1.75.5585719 0 1.0498684-.252703 1.375-.65625.031252-.03879.065797-.08362.09375-.125 2.1998867-1.938303 4.022277-4.5116128 6.21875-6.375l1.4375-1.09375c.35692.1241.72567.21875 1.125.21875 1.9114 0 2.90625-1.06265 2.90625-2.96875 0-.39829-.09431-.80034-.21875-1.15625l-1.3125 1.40625c-.738713.058516-1.341513-.1100527-1.71875-.59375-.387348-.3863-.3561-1.39498.03125-1.78125l2.0625-1.125c-.35692-.12412-1.35067-.6875-1.75-.6875zm-.148438.8203125-.542968.296875a.79224479.79224479 0 0 0 -.179688.1347656c-.43026.4290607-.527967.9383189-.539062 1.4335938-.010715.4783272.072706.9854758.478515 1.4199219.576383.7066094 1.492424.9405415 2.369141.8710937a.79224479.79224479 0 0 0 .398438-.1445313c-.087853.2374724-.092147.6069284-.234376.7539063-.310943.3213301-.792664.5273437-1.601562.5273437-.274156 0-.550162-.0642784-.865234-.1738281a.79224479.79224479 0 0 0 -.740235.1171875l-1.4374998 1.09375a.79224479.79224479 0 0 0 -.03125.0273438c-2.3059959 1.9563015-4.128699 4.5329126-6.2304687 6.3847656a.79224479.79224479 0 0 0 -.1328125.150391c-.0070484.010434-.0315842.043589-.0546875.072265-.1818962.225766-.4381625.359375-.7578125.359375-.5643106 0-.9882812-.409567-.9882812-.957031-.0000001-.391706.2507071-.756189.5742187-.908203a.79224479.79224479 0 0 0 .1777344-.115235c.0384741-.024816.0360581-.004903.0839843-.048828 2.0877261-1.912843 5.5950718-4.023277 7.7929688-7.0566402a.79224479.79224479 0 0 0 .107422-.7265626c.072416.2071233.016613.0689986.035156-.0839843.018544-.1529829.058265-.367451.103516-.5898438.04525-.2223927.095088-.453839.136719-.6660156.041628-.2121766.082031-.3727755.082031-.6171875 0-.8109027.158703-1.0703867.419922-1.2578125.238751-.1713051.812028-.2759561 1.576171-.296875z"/><path d="m11.4375 7.84375v.8125c-.281999.040072-.529095.1392311-.78125.25l-.4375-.71875-.6874999.40625.4375.71875c-.195415.1554829-.37847.3336145-.53125.53125l-.75-.40625-.40625.6875.75.4375c-.099586.242039-.183353.481712-.21875.75h-.84375v.78125h.84375c.035281.289681.109092.584488.21875.84375l-.71875.40625.40625.6875.71875-.4375c.156643.204848.329134.402511.53125.5625l-.40625.71875.6874999.375.40625-.6875c.252155.110769.499251.178677.78125.21875v.78125h.8125v-.78125c.289681-.03528.584488-.07784.84375-.1875l.375.65625.6875-.40625-.40625-.65625c.226104-.172213.422613-.366785.59375-.59375l.65625.375.40625-.6875-.65625-.34375c.0039-.0091-.0038-.0221 0-.03125.103471-.251371.153459-.532997.1875-.8125h.78125v-.78125h-.78125c-.03983-.301912-.09835-.575805-.21875-.84375l.65625-.375-.40625-.6875-.6875.40625c-.168305-.2115301-.345204-.401327-.5625-.5625l.40625-.6875-.71875-.40625-.40625.6875c-.233458-.090275-.493132-.1562153-.75-.1875v-.8125zm.40625 2.1875c.915291 0 1.65625.772209 1.65625 1.6875s-.740959 1.65625-1.65625 1.65625-1.65625-.740959-1.65625-1.65625.740959-1.6875 1.65625-1.6875z"/></g></svg>

<?xml version="1.0" encoding="UTF-8" standalone="no"?>
<!-- Created with Inkscape (http://www.inkscape.org/) -->

<svg
   xmlns:dc="http://purl.org/dc/elements/1.1/"
   xmlns:cc="http://creativecommons.org/ns#"
   xmlns:rdf="http://www.w3.org/1999/02/22-rdf-syntax-ns#"
   xmlns:svg="http://www.w3.org/2000/svg"
   xmlns="http://www.w3.org/2000/svg"
   xmlns:sodipodi="http://sodipodi.sourceforge.net/DTD/sodipodi-0.dtd"
   xmlns:inkscape="http://www.inkscape.org/namespaces/inkscape"
   id="svg7384"
   height="16"
   width="16"
   version="1.1"
   inkscape:version="0.92.2 (unknown)"
   sodipodi:docname="preferences-other-symbolic.svg">
  <defs
     id="defs4832" />
  <sodipodi:namedview
     pagecolor="#ffffff"
     bordercolor="#666666"
     borderopacity="1"
     objecttolerance="10"
     gridtolerance="10"
     guidetolerance="10"
     inkscape:pageopacity="0"
     inkscape:pageshadow="2"
     inkscape:window-width="1366"
     inkscape:window-height="711"
     id="namedview4830"
     showgrid="false"
     inkscape:zoom="32"
     inkscape:cx="10.897834"
     inkscape:cy="11.502169"
     inkscape:window-x="0"
     inkscape:window-y="0"
     inkscape:window-maximized="1"
     inkscape:current-layer="svg7384" />
  <metadata
     id="metadata90">
    <rdf:RDF>
      <cc:Work
         rdf:about="">
        <dc:format>image/svg+xml</dc:format>
        <dc:type
           rdf:resource="http://purl.org/dc/dcmitype/StillImage" />
        <dc:title>Gnome Symbolic Icon Theme</dc:title>
      </cc:Work>
    </rdf:RDF>
  </metadata>
  <title
     id="title9167">Gnome Symbolic Icon Theme</title>
  <path
     style="text-indent:0;text-transform:none;block-progression:tb;color:#000000;fill:#bebebe"
     d="M 12.5625 0.28125 C 10.6511 0.28125 9.625 0.75014993 9.625 2.65625 C 9.625 3.05454 9.18806 4.51908 9.3125 4.875 C 7.2521223 7.7185701 3.8153437 9.8056346 1.625 11.8125 C 1.608562 11.8277 1.579021 11.82839 1.5625 11.84375 C 0.95960753 12.127041 0.53125 12.758525 0.53125 13.46875 C 0.53125 14.44837 1.3328798 15.21875 2.3125 15.21875 C 2.8710719 15.21875 3.3623684 14.966047 3.6875 14.5625 C 3.718752 14.52371 3.753297 14.47888 3.78125 14.4375 C 5.9811367 12.499197 7.803527 9.9258872 10 8.0625 L 11.4375 6.96875 C 11.79442 7.09285 12.16317 7.1875 12.5625 7.1875 C 14.4739 7.1875 15.46875 6.12485 15.46875 4.21875 C 15.46875 3.82046 15.37444 3.41841 15.25 3.0625 L 13.9375 4.46875 C 13.198787 4.527266 12.595987 4.3586973 12.21875 3.875 C 11.831402 3.4887 11.86265 2.48002 12.25 2.09375 L 14.3125 0.96875 C 13.95558 0.84463 12.96183 0.28125 12.5625 0.28125 z M 12.414062 1.1015625 L 11.871094 1.3984375 A 0.79224479 0.79224479 0 0 0 11.691406 1.5332031 C 11.261146 1.9622638 11.163439 2.471522 11.152344 2.9667969 C 11.141629 3.4451241 11.22505 3.9522727 11.630859 4.3867188 C 12.207242 5.0933282 13.123283 5.3272603 14 5.2578125 A 0.79224479 0.79224479 0 0 0 14.398438 5.1132812 C 14.310585 5.3507536 14.306291 5.7202096 14.164062 5.8671875 C 13.853119 6.1885176 13.371398 6.3945312 12.5625 6.3945312 C 12.288344 6.3945312 12.012338 6.3302528 11.697266 6.2207031 A 0.79224479 0.79224479 0 0 0 10.957031 6.3378906 L 9.5195312 7.4316406 A 0.79224479 0.79224479 0 0 0 9.4882812 7.4589844 C 7.1822853 9.4152859 5.3595822 11.991897 3.2578125 13.84375 A 0.79224479 0.79224479 0 0 0 3.125 13.994141 C 3.1179516 14.004575 3.0934158 14.03773 3.0703125 14.066406 C 2.8884163 14.292172 2.63215 14.425781 2.3125 14.425781 C 1.7481894 14.425781 1.3242188 14.016214 1.3242188 13.46875 C 1.3242187 13.077044 1.5749259 12.712561 1.8984375 12.560547 A 0.79224479 0.79224479 0 0 0 2.0761719 12.445312 C 2.114646 12.420496 2.11223 12.440409 2.1601562 12.396484 C 4.2478823 10.483641 7.755228 8.373207 9.953125 5.3398438 A 0.79224479 0.79224479 0 0 0 10.060547 4.6132812 C 10.132963 4.8204045 10.07716 4.6822798 10.095703 4.5292969 C 10.114247 4.376314 10.153968 4.1618459 10.199219 3.9394531 C 10.244469 3.7170604 10.294307 3.4856141 10.335938 3.2734375 C 10.377566 3.0612609 10.417969 2.900662 10.417969 2.65625 C 10.417969 1.8453473 10.576672 1.5858633 10.837891 1.3984375 C 11.076642 1.2271324 11.649919 1.1224814 12.414062 1.1015625 z "
     id="path3908" />
  <path
     style="fill:#bebebe;fill-opacity:1;stroke:none"
     d="m 11.4375,7.84375 0,0.8125 c -0.281999,0.040072 -0.529095,0.1392311 -0.78125,0.25 l -0.4375,-0.71875 -0.6874999,0.40625 0.4375,0.71875 c -0.195415,0.1554829 -0.37847,0.3336145 -0.53125,0.53125 l -0.75,-0.40625 -0.40625,0.6875 0.75,0.4375 c -0.099586,0.242039 -0.183353,0.481712 -0.21875,0.75 l -0.84375,0 0,0.78125 0.84375,0 c 0.035281,0.289681 0.109092,0.584488 0.21875,0.84375 l -0.71875,0.40625 0.40625,0.6875 0.71875,-0.4375 c 0.156643,0.204848 0.329134,0.402511 0.53125,0.5625 L 9.5625001,14.875 10.25,15.25 10.65625,14.5625 c 0.252155,0.110769 0.499251,0.178677 0.78125,0.21875 l 0,0.78125 0.8125,0 0,-0.78125 c 0.289681,-0.03528 0.584488,-0.07784 0.84375,-0.1875 l 0.375,0.65625 0.6875,-0.40625 L 13.75,14.1875 c 0.226104,-0.172213 0.422613,-0.366785 0.59375,-0.59375 L 15,13.96875 15.40625,13.28125 14.75,12.9375 c 0.0039,-0.0091 -0.0038,-0.0221 0,-0.03125 0.103471,-0.251371 0.153459,-0.532997 0.1875,-0.8125 l 0.78125,0 0,-0.78125 -0.78125,0 c -0.03983,-0.301912 -0.09835,-0.575805 -0.21875,-0.84375 l 0.65625,-0.375 -0.40625,-0.6875 -0.6875,0.40625 C 14.112945,9.6009699 13.936046,9.411173 13.71875,9.25 L 14.125,8.5625 13.40625,8.15625 13,8.84375 C 12.766542,8.753475 12.506868,8.6875347 12.25,8.65625 l 0,-0.8125 -0.8125,0 z m 0.40625,2.1875 c 0.915291,0 1.65625,0.772209 1.65625,1.6875 0,0.915291 -0.740959,1.65625 -1.65625,1.65625 -0.915291,0 -1.65625,-0.740959 -1.65625,-1.65625 0,-0.915291 0.740959,-1.6875 1.65625,-1.6875 z"
     id="path6547"
     inkscape:connector-curvature="0" />
</svg>
